X: 10986
T: Drunken Jenny
R: jig
M: 6/8
K: Dmajor
dcd Adf|agf ged|cBc Ace|gfe fdA|
BGB BdB|AFA ABc|def agf|edc cBA:|
|:dAF dAF|GBe GBe|Ace gfe|fdA dfa|
bgd Bdb|afd Ada|gfe dcB|Aec d3:|

